public/menu-svgrepo-com.svg

<svg fill="#fff" height="800" viewBox="0 0 150 150" width="800" xmlns="http://www.w3.org/2000/svg"><path d="m15 30h120c8.284 0 15-6.716 15-15s-6.716-15-15-15h-120c-8.284 0-15 6.716-15 15s6.716 15 15 15z"/><path d="m135 60h-120c-8.284 0-15 6.716-15 15s6.716 15 15 15h120c8.284 0 15-6.716 15-15s-6.716-15-15-15z"/><path d="m135 120h-120c-8.284 0-15 6.716-15 15s6.716 15 15 15h120c8.284 0 15-6.716 15-15s-6.716-15-15-15z"/></svg>

<?xml version="1.0" encoding="iso-8859-1"?>
<!-- Uploaded to: SVG Repo, www.svgrepo.com, Generator: SVG Repo Mixer Tools -->
<svg fill="#fff" height="800px" width="800px" version="1.1" id="Layer_1" xmlns="http://www.w3.org/2000/svg" xmlns:xlink="http://www.w3.org/1999/xlink" 
	 viewBox="0 0 150 150" xml:space="preserve">
<g id="XMLID_240_">
	<path id="XMLID_241_" d="M15,30h120c8.284,0,15-6.716,15-15s-6.716-15-15-15H15C6.716,0,0,6.716,0,15S6.716,30,15,30z"/>
	<path id="XMLID_242_" d="M135,60H15C6.716,60,0,66.716,0,75s6.716,15,15,15h120c8.284,0,15-6.716,15-15S143.284,60,135,60z"/>
	<path id="XMLID_243_" d="M135,120H15c-8.284,0-15,6.716-15,15s6.716,15,15,15h120c8.284,0,15-6.716,15-15S143.284,120,135,120z"/>
</g>
</svg>
